X:1
T:Title
%%score { ( 1 3 ) | 2 }
L:1/8
M:6/8
K:Db
V:1 treble nm="Grand Piano"
V:3 treble 
V:2 bass 
V:1
 z3 z2[Q:1/4=84] A | D>DD DEF | [FA]>[GB][FA] [FA]2 [FA] | B>cd [Fd][FA]F | E3- E2 [CA] | %5
 D>DD DEF | z3 z2 .d | [Af]>[Ge][Fd] eBc |[M:5/8] [Fd]-[Fd]- [Fd]3 |[M:1/8] [Fd] | %10
[M:7/8] e>AA A3 e | [Af]>[Fd][Fd] [Fd]3 [FA] |[M:3/4] B>c de dB | [GB]>[FA] [DF] [CE]2 [CA] | %14
 D>D DD EF | [FA]>[GB] [FA] [FA]2 [Fd]/[Ge]/ | [Af]>[Ge] [Fd]e dB |[M:5/8] A>B[EGc] [Fd]2 |] %18
V:2
 z3 z2 A, | [D,F,]>[D,F,][D,F,] [D,F,][D,G,D][D,A,D] | [D,D]>[D,D][D,D] [D,D]2 [D,D] | %3
 [G,DG]>[G,CG][G,B,G] [D,A,][D,D][F,A,D] | [A,C]3- [A,C]2 [A,,G,] | %5
 [D,F,]>[D,F,][D,F,] [D,F,][D,G,D][D,A,D] | [D,D]>[D,D][D,D] [D,D]2 [D,A,] | %7
 [D,D]>[D,A,][D,A,][K:treble] [A,CG][A,DG][A,EG] |[M:5/8][K:bass] [D,D]-[D,D]- [D,D]3 | %9
[M:1/8] [D,A,] |[M:7/8][K:treble] [A,CG]>[A,CG][A,CG] [A,CG]3 [A,CG] | %11
 [D,D]>[D,A,][D,A,] [D,A,]3 [D,D] |[M:3/4] [G,DG]>[G,CG] [G,B,G][G,B,G] [G,B,G][G,DG] | %13
 [D,D]>[D,D] [D,A,] [A,,A,]2 [A,,G,] | [D,F,]>[D,F,] [D,F,][D,F,] [D,G,D][D,A,D] | %15
 [D,D]>[D,D] [D,D] [D,D]2 [D,A,] | [D,D]>[D,A,] [D,A,][K:treble][G,B,G] [G,B,G][G,DG] | %17
[M:5/8] [A,CG]>[A,CG][K:bass][A,,A,] [D,D]2 |] %18
V:3
 x6 | x6 | x6 | x6 | x6 | x6 | [FA]>[GB][FA] [FA]2 F/-[Fe]/ | x6 |[M:5/8] x5 |[M:1/8] x | %10
[M:7/8] x7 | x7 |[M:3/4] x6 | x6 | x6 | x6 | x6 |[M:5/8] x5 |] %18

